images/helmet.svg

<?xml version="1.0" encoding="UTF-8" standalone="no"?>
<!-- Generator: Adobe Illustrator 16.0.4, SVG Export Plug-In . SVG Version: 6.00 Build 0)  -->
<!DOCTYPE svg  PUBLIC '-//W3C//DTD SVG 1.1//EN'  'http://www.w3.org/Graphics/SVG/1.1/DTD/svg11.dtd'>
<svg id="Layer_1" xmlns="http://www.w3.org/2000/svg" xml:space="preserve" height="560px" viewBox="224.298 0 518.761 560" width="518.76px" version="1.1" y="0px" x="0px" xmlns:xlink="http://www.w3.org/1999/xlink" enable-background="new 224.298 0 518.761 560">
<g fill="#28537B">
	<path d="m483.81 30.162c51.486 0 100.76 19.141 138.66 53.895 37.682 34.563 61.084 81.513 65.788 132.18l0.112 1.395 0.274 1.395c0.33 1.971 0.549 3.746 0.549 5.443v163.27c0 20.508-17.556 45.612-36.697 52.556-0.549 0.163-53.485 18.268-168.68 18.268-115.23 0-168.16-18.099-168.55-18.211-19.275-7-36.832-32.1-36.832-52.612v-163.3c0-1.697 0.19-3.472 0.549-5.443l0.274-1.395 0.112-1.394c4.732-50.669 28.084-97.619 65.789-132.18 37.93-34.748 87.18-53.888 138.66-53.888m0-30.162c-122.63 0-223.33 93.733-234.47 213.44-0.655 3.584-1.064 7.274-1.064 11.021v163.27c0 33.197 25.514 69.619 56.711 80.938 0 0 55.154 20.07 178.83 20.07s178.85-20.07 178.85-20.07c31.17-11.318 56.655-47.74 56.655-80.938v-163.27c0-3.747-0.381-7.437-1.042-11.021-11.15-119.71-111.83-213.44-234.47-213.44z"/>
	<path d="m483.68 418.63c-86.515 0-124.58-9.789-126.16-10.17-24.662-6.507-43.993-31.556-43.993-57.092v-102.43c0-26.606 21.655-48.233 48.261-48.233h244.07c26.577 0 48.232 21.627 48.232 48.233v102.43c0 25.542-19.303 50.585-43.971 57.042-1.64 0.43-39.93 10.22-126.44 10.22zm-121.9-193.81c-13.317 0-24.147 10.831-24.147 24.12v102.43c0 14.331 12.168 30.078 26.029 33.74 0.33 0.112 37.218 9.408 120.01 9.408 82.852 0 119.93-9.353 120.31-9.459 13.837-3.611 25.979-19.359 25.979-33.689v-102.43c0-13.289-10.831-24.12-24.12-24.12h-244.06z"/>
	<path d="m506.4 343.55c-5.634-5.908 7.957-28.112 30.436-49.492 22.423-21.41 45.226-33.987 50.859-28.057s4.373 34.646-21.274 59.119c-25.66 24.44-54.37 24.33-60.03 18.43z"/>
	<path d="m558.6 357.6c-2.57-2.733 3.662-12.853 13.888-22.585 10.226-9.789 20.619-15.529 23.24-12.796 2.57 2.682 1.972 15.803-9.732 26.958s-24.83 11.1-27.4 8.42z"/>
	<path d="m239.39 414.09c-8.339 0-15.092-6.781-15.092-15.092v-154.63c0-8.339 6.753-15.092 15.092-15.092 8.338 0 15.092 6.753 15.092 15.092v154.63c0 8.31-6.75 15.09-15.09 15.09z"/>
	<path d="m727.97 414.09c-8.311 0-15.041-6.781-15.041-15.092v-154.63c0-8.339 6.726-15.092 15.041-15.092 8.366 0 15.092 6.753 15.092 15.092v154.63c0 8.31-6.73 15.09-15.09 15.09z"/>
	<path d="m489.94 560c-125.94 0-183.67-20.451-186.08-21.33-10.965-3.993-16.599-16.134-12.605-27.07 3.965-10.938 16.021-16.57 26.958-12.634 0.711 0.218 54.606 18.811 171.72 18.811 117.28 0 171.15-18.648 171.69-18.811 10.937-3.937 23.021 1.803 26.958 12.74s-1.696 22.971-12.634 26.958c-2.35 0.88-60.1 21.33-186.02 21.33z"/>
	<path d="m417.26 137.37c11.647 0 21.111 9.436 21.111 21.112 0 11.648-9.458 21.112-21.111 21.112-11.654 0-21.112-9.458-21.112-21.112 0-11.67 9.47-21.11 21.11-21.11z"/>
	<path d="m363.72 137.35c11.676 0 21.134 9.458 21.134 21.134 0 11.648-9.458 21.112-21.134 21.112-11.648 0-21.112-9.458-21.112-21.112 0.01-11.67 9.46-21.13 21.11-21.13z"/>
</g>
</svg>

<?xml version="1.0" encoding="utf-8"?>
<!-- Generator: Adobe Illustrator 16.0.4, SVG Export Plug-In . SVG Version: 6.00 Build 0)  -->
<!DOCTYPE svg PUBLIC "-//W3C//DTD SVG 1.1//EN" "http://www.w3.org/Graphics/SVG/1.1/DTD/svg11.dtd">
<svg version="1.1" id="Layer_1" xmlns="http://www.w3.org/2000/svg" xmlns:xlink="http://www.w3.org/1999/xlink" x="0px" y="0px"
	 width="518.761px" height="560px" viewBox="224.298 0 518.761 560" enable-background="new 224.298 0 518.761 560"
	 xml:space="preserve">
<g>
	<path fill="#28537B" d="M483.813,30.162c51.486,0,100.761,19.141,138.662,53.895c37.682,34.563,61.084,81.513,65.788,132.182
		l0.112,1.395l0.274,1.395c0.33,1.971,0.549,3.746,0.549,5.443v163.268c0,20.508-17.556,45.612-36.697,52.556
		c-0.549,0.163-53.485,18.268-168.683,18.268c-115.226,0-168.163-18.099-168.549-18.211c-19.275-7-36.832-32.1-36.832-52.612
		V224.465c0-1.697,0.19-3.472,0.549-5.443l0.274-1.395l0.112-1.394c4.732-50.669,28.084-97.619,65.789-132.183
		C383.081,49.302,432.327,30.162,483.813,30.162 M483.813,0C361.179,0,260.475,93.733,249.342,213.444
		c-0.655,3.584-1.064,7.274-1.064,11.021v163.268c0,33.197,25.514,69.619,56.711,80.938c0,0,55.154,20.07,178.831,20.07
		c123.676,0,178.853-20.07,178.853-20.07c31.17-11.318,56.655-47.74,56.655-80.938V224.465c0-3.747-0.381-7.437-1.042-11.021
		C707.131,93.733,606.453,0,483.813,0L483.813,0z"/>
	<path fill="#28537B" d="M483.68,418.634c-86.515,0-124.578-9.789-126.163-10.17c-24.662-6.507-43.993-31.556-43.993-57.092V248.937
		c0-26.606,21.655-48.233,48.261-48.233h244.07c26.577,0,48.232,21.627,48.232,48.233v102.429c0,25.542-19.303,50.585-43.971,57.042
		C608.476,408.845,570.193,418.634,483.68,418.634z M361.778,224.817c-13.317,0-24.147,10.831-24.147,24.12v102.429
		c0,14.331,12.168,30.078,26.029,33.74c0.33,0.112,37.218,9.408,120.014,9.408c82.852,0,119.93-9.353,120.311-9.459
		c13.837-3.611,25.979-19.359,25.979-33.689V248.937c0-13.289-10.831-24.12-24.12-24.12H361.778z"/>
	<path fill="#28537B" d="M506.404,343.549c-5.634-5.908,7.957-28.112,30.436-49.492c22.423-21.41,45.226-33.987,50.859-28.057
		s4.373,34.646-21.274,59.119C540.771,349.563,512.06,349.451,506.404,343.549z"/>
	<path fill="#28537B" d="M558.602,357.6c-2.57-2.733,3.662-12.853,13.888-22.585c10.226-9.789,20.619-15.529,23.24-12.796
		c2.57,2.682,1.972,15.803-9.732,26.958S561.172,360.281,558.602,357.6z"/>
	<path fill="#28537B" d="M239.391,414.092c-8.339,0-15.092-6.781-15.092-15.092V244.373c0-8.339,6.753-15.092,15.092-15.092
		c8.338,0,15.092,6.753,15.092,15.092V399C254.482,407.311,247.729,414.092,239.391,414.092z"/>
	<path fill="#28537B" d="M727.968,414.092c-8.311,0-15.041-6.781-15.041-15.092V244.373c0-8.339,6.726-15.092,15.041-15.092
		c8.366,0,15.092,6.753,15.092,15.092V399C743.06,407.311,736.334,414.092,727.968,414.092z"/>
	<path fill="#28537B" d="M489.94,560c-125.944,0-183.669-20.451-186.077-21.33c-10.965-3.993-16.599-16.134-12.605-27.07
		c3.965-10.938,16.021-16.57,26.958-12.634c0.711,0.218,54.606,18.811,171.719,18.811c117.275,0,171.147-18.648,171.69-18.811
		c10.937-3.937,23.021,1.803,26.958,12.74c3.937,10.937-1.696,22.971-12.634,26.958C673.608,539.549,615.861,560,489.94,560z"/>
	<path fill="#28537B" d="M417.264,137.374c11.647,0,21.111,9.436,21.111,21.112c0,11.648-9.458,21.112-21.111,21.112
		c-11.654,0-21.112-9.458-21.112-21.112C396.151,146.81,405.615,137.374,417.264,137.374z"/>
	<path fill="#28537B" d="M363.722,137.346c11.676,0,21.134,9.458,21.134,21.134c0,11.648-9.458,21.112-21.134,21.112
		c-11.648,0-21.112-9.458-21.112-21.112C342.615,146.81,352.074,137.346,363.722,137.346z"/>
</g>
</svg>
